X:1
T:Reverie
C:Claude Debussy
%%score { 1 }
L:1/4
M:4/4
I:linebreak $
K:C
V:1 treble nm="Piano" snm="Pno."
V:1
"Dm" d2 A2- | A B/c/ d B/A/ | (3B G B A2- | A2 F A |"C" B c G2- |"G7" G2 D2 |"C" E4- | E4 |$ %8
"Am7" e2"Em" B2- | B A/B/"Dm7" A F/D/ |"Am7" e2"Em" B2- | B A/B/"Dm7" A F/D/ |"G9" d2 A2- | %13
 A F/A/"C" G E/D/ |$"Em" E B,/D/"Am" C A,/C/ |"Dm7" A,2"G7" G,2 |"C9" G2 D2- | D E/F/ G E/D/ | %18
 (3E C E D2- | D2 _B, D |$"F" E F C2- | C2 E F | G A E2- | E2 F A |"C+" c2 ^G2 | %25
"Am" z A/B/ c c/e/ |$"C+" d2 ^G2 |"Am" z A/B/ c c/e/ | c A,/B,/ C C/E/ |"D7" C2 A,2- | %30
"G" A, G, G2 |"Dm" d2 A2- |$ A B/c/ d B/A/ | (3B G B A2- | A2 F A |"C" B c G2- |"G7" G2 D2 | %37
"C" E4- | E4 |$"Am7" e2"Em" B2- | B A/B/"Dm7" A F/D/ |"Am7" e2"Em" B2- | B A/B/"Dm7" A F/D/ | %43
"Bb" d2 A2- |$ A F/A/ G"C7" E/C/ |"Bb" d2 A2- | A F/A/"Gm6" G"A" A |"Dm" F"E" E E"Dm" F | %48
 F"E" E E2 |"Dm" F"E" E E"Dm" (3F/A/F/ |$"E" E D"Am" C2 |"Dm" F"E" E E"Dm" F | F"E7" E E2 | %53
"Dm6" F"E7" E E"Dm" (3F/A/F/ |"G7" E2 D2 |"C" C4 | %56
